packages/core/src/svgs/tokens/branded/DNT.svg

<svg width="24" height="24" viewBox="0 0 24 24" fill="none" xmlns="http://www.w3.org/2000/svg">
<path d="M21.2846 10.1316C21.1523 9.47701 20.9178 8.84731 20.5896 8.26574C19.9145 7.11312 18.443 5.4359 16.6024 4.11527C16.6024 4.11527 15.2124 3.19296 14.558 2.87865C12.1665 1.7466 9.48813 1.51631 7.19824 3.59126C3.35443 7.09256 1.43282 11.9762 3.35443 16.8387C3.39556 16.9444 4.45887 19.9206 10.8376 21.912C13.6381 21.9955 15.2736 21.8281 17.073 20.7589C19.4241 19.3754 20.794 16.8605 21.2846 14.3026C21.4279 13.5271 21.4479 10.907 21.2846 10.1316Z" fill="#98F7D2"/>
<path d="M13.7103 3.27226V7.88037L8.7885 8.19409L6.84692 10.5081L6.08203 14.0377L8.16109 17.3322L10.7888 18.4895H14.3578L17.2793 17.9202V4.6399C17.2793 4.6399 15.2149 2.98324 13.8654 2.58551" fill="#AFF3F9"/>
<path d="M20.0168 14.8265C19.2813 14.7854 19.6902 13.59 19.363 12.2276C18.9741 10.7184 19.5468 9.67043 20.3029 9.7121C20.6594 9.76995 20.9964 9.91401 21.2846 10.1316C21.1523 9.47701 20.9178 8.84731 20.5896 8.26574C19.9145 7.11312 18.54 5.4359 16.7 4.11527V16.6055C16.7 17.1559 16.1443 17.7346 15.6302 17.8526C15.061 17.9831 14.4729 17.6776 14.2314 17.1507C13.5046 17.611 12.6664 17.8655 11.8064 17.8873C9.16332 17.9608 6.70829 16.0191 6.7124 13.1459C6.71651 10.2726 9.02116 8.10477 11.663 8.09832C12.5219 8.09596 13.0195 8.22873 13.762 8.67051V3.81802C13.7585 3.63002 13.816 3.44321 13.8942 3.27225C13.9716 3.10228 14.0868 2.95219 14.2308 2.83342C11.8387 1.70136 9.48813 1.51631 7.19824 3.59126C3.35443 7.09256 1.43282 11.9762 3.35443 16.8387C3.39556 16.9444 3.43609 17.049 3.47721 17.1324C3.53184 17.015 3.60822 16.908 3.70162 16.8181C4.70325 15.77 5.80711 17.9084 8.15874 19.1444C9.65098 19.9206 10.5104 20.9486 10.8376 21.912C13.0247 22.1852 15.2736 21.8281 17.073 20.7589C19.4241 19.3754 20.794 16.8605 21.2846 14.3026C20.9348 14.6178 20.4871 14.8026 20.0168 14.8265ZM12.0048 4.89192C12.5571 4.87077 13.0683 5.54166 13.0882 5.85595C13.1087 6.17025 12.6183 6.04452 12.0865 6.2331C11.4933 6.44284 11.0644 6.25425 11.0438 5.93937C11.0232 5.62507 11.4304 4.91248 12.0048 4.89192Z" fill="#2F3D86"/>
<path d="M10.8124 14.7409C12.002 15.3824 13.4385 15.1298 13.7045 13.691C13.8485 12.8551 13.7662 11.5526 12.9867 11.1444C10.4018 9.74446 8.22756 13.3415 10.8124 14.7409Z" fill="#2F3D86"/>
</svg>

<svg xmlns="http://www.w3.org/2000/svg" width="24" height="24" fill="none" viewBox="0 0 24 24">
    <path fill="#98F7D2" d="M21.285 10.132a6.4 6.4 0 0 0-.695-1.866c-.675-1.153-2.147-2.83-3.988-4.15 0 0-1.39-.923-2.044-1.237-2.392-1.132-5.07-1.363-7.36.712-3.844 3.502-5.765 8.385-3.844 13.248.042.105 1.105 3.082 7.484 5.073 2.8.084 4.436-.084 6.235-1.153 2.351-1.384 3.721-3.899 4.212-6.456.143-.776.163-3.396 0-4.171"/>
    <path fill="#AFF3F9" d="M13.71 3.272V7.88l-4.921.314-1.942 2.314-.765 3.53 2.08 3.294 2.627 1.157h3.569l2.921-.569V4.64s-2.064-1.657-3.414-2.054"/>
    <path fill="#2F3D86" d="M20.017 14.827c-.736-.042-.327-1.237-.654-2.6-.389-1.509.184-2.557.94-2.515.356.058.693.202.982.42a6.4 6.4 0 0 0-.695-1.866c-.675-1.153-2.05-2.83-3.89-4.15v12.49c0 .55-.556 1.129-1.07 1.247a1.25 1.25 0 0 1-1.399-.702 4.76 4.76 0 0 1-2.425.736c-2.643.074-5.098-1.868-5.094-4.741.005-2.873 2.31-5.041 4.951-5.048.859-.002 1.357.13 2.099.573V3.818a1.3 1.3 0 0 1 .132-.546c.078-.17.193-.32.337-.439-2.392-1.132-4.743-1.317-7.033.758-3.844 3.502-5.765 8.385-3.844 13.248.042.105.082.21.123.293q.083-.177.225-.314c1.001-1.048 2.105 1.09 4.457 2.326 1.492.777 2.351 1.805 2.679 2.768 2.187.273 4.436-.084 6.235-1.153 2.351-1.384 3.721-3.899 4.212-6.456-.35.315-.798.5-1.268.523m-8.012-9.935c.552-.021 1.063.65 1.083.964s-.47.189-1.001.377c-.594.21-1.023.021-1.043-.294-.02-.314.386-1.027.96-1.047"/>
    <path fill="#2F3D86" d="M10.812 14.74c1.19.642 2.627.39 2.893-1.049.143-.836.061-2.138-.718-2.547-2.585-1.4-4.76 2.198-2.175 3.597"/>
</svg>
